UnityPomodoro/Assets/AdrianMiasik/SVGs/icon-plus.svg

<svg enable-background="new 0 0 100 100" fill="#fff" height="100" viewBox="0 0 100 100" width="100" xmlns="http://www.w3.org/2000/svg"><path d="m70.8 44.7h-15.5v-15.5c0-2.9-2.4-5.3-5.3-5.3s-5.3 2.4-5.3 5.3v15.5h-15.5c-2.9 0-5.3 2.4-5.3 5.3 0 1.5.6 2.8 1.5 3.7 1 1 2.3 1.5 3.7 1.5h15.5v15.5c0 1.5.6 2.8 1.5 3.7 1 1 2.3 1.5 3.7 1.5 2.9 0 5.3-2.4 5.3-5.3v-15.3h15.5c2.9 0 5.3-2.4 5.3-5.3.1-2.9-2.2-5.3-5.1-5.3z"/><path d="m50 2.5c-26.2 0-47.5 21.3-47.5 47.5s21.3 47.5 47.5 47.5 47.5-21.3 47.5-47.5-21.3-47.5-47.5-47.5zm0 84.4c-20.4 0-36.9-16.5-36.9-36.9s16.5-36.9 36.9-36.9 36.9 16.5 36.9 36.9-16.5 36.9-36.9 36.9z"/></svg>

<svg height='100px' width='100px'  fill="#FFFFFF" xmlns:x="http://ns.adobe.com/Extensibility/1.0/" xmlns:i="http://ns.adobe.com/AdobeIllustrator/10.0/" xmlns:graph="http://ns.adobe.com/Graphs/1.0/" xmlns="http://www.w3.org/2000/svg" xmlns:xlink="http://www.w3.org/1999/xlink" version="1.1" x="0px" y="0px" viewBox="0 0 100 100" style="enable-background:new 0 0 100 100;" xml:space="preserve"><g><g i:extraneous="self"><g><path d="M70.8,44.7H55.3V29.2c0-2.9-2.4-5.3-5.3-5.3c-2.9,0-5.3,2.4-5.3,5.3v15.5H29.2c-2.9,0-5.3,2.4-5.3,5.3     c0,1.5,0.6,2.8,1.5,3.7c1,1,2.3,1.5,3.7,1.5h15.5v15.5c0,1.5,0.6,2.8,1.5,3.7c1,1,2.3,1.5,3.7,1.5c2.9,0,5.3-2.4,5.3-5.3V55.3     h15.5c2.9,0,5.3-2.4,5.3-5.3C76,47.1,73.7,44.7,70.8,44.7z"></path><path d="M50,2.5C23.8,2.5,2.5,23.8,2.5,50S23.8,97.5,50,97.5c26.2,0,47.5-21.3,47.5-47.5S76.2,2.5,50,2.5z M50,86.9     c-20.4,0-36.9-16.5-36.9-36.9S29.6,13.1,50,13.1S86.9,29.6,86.9,50S70.4,86.9,50,86.9z"></path></g></g></g></svg>
